svgs/duotone/square-arrow-down.svg

<svg xmlns="http://www.w3.org/2000/svg" viewBox="0 0 448 512"><!-- Font Awesome Pro 6.0.0-alpha2 by @fontawesome - https://fontawesome.com License - https://fontawesome.com/license (Commercial License) --><defs><style>.fa-secondary{opacity:.4}</style></defs><path d="M384 32H64C28.656 32 0 60.656 0 96V416C0 451.344 28.656 480 64 480H384C419.344 480 448 451.344 448 416V96C448 60.656 419.344 32 384 32ZM350.625 302.625L246.646 406.602C238.664 414.602 228.9 416 224 416C219.119 416 209.346 414.609 201.354 406.602L97.375 302.625C84.875 290.125 84.875 269.875 97.375 257.375S130.125 244.875 142.625 257.375L192 306.75V128C192 110.312 206.328 96 224 96S256 110.312 256 128V306.75L305.375 257.375C317.875 244.875 338.125 244.875 350.625 257.375S363.125 290.125 350.625 302.625Z" class="fa-secondary"/><path d="M350.625 302.625L246.646 406.602C238.664 414.602 228.9 416 224 416C219.119 416 209.346 414.609 201.354 406.602L97.375 302.625C84.875 290.125 84.875 269.875 97.375 257.375S130.125 244.875 142.625 257.375L192 306.75V128C192 110.312 206.328 96 224 96S256 110.312 256 128V306.75L305.375 257.375C317.875 244.875 338.125 244.875 350.625 257.375S363.125 290.125 350.625 302.625Z" class="fa-primary"/></svg>

<svg xmlns="http://www.w3.org/2000/svg" viewBox="0 0 448 512"><!--! Font Awesome Pro 6.3.0 by @fontawesome - https://fontawesome.com License - https://fontawesome.com/license (Commercial License) Copyright 2023 Fonticons, Inc. --><defs><style>.fa-secondary{opacity:.4}</style></defs><path class="fa-primary" d="M350.6 302.6l-103.1 103.1C238.7 414.6 228.9 416 224 416c-4.881 0-14.65-1.391-22.65-9.398L97.38 302.6c-12.5-12.5-12.5-32.75 0-45.25s32.75-12.5 45.25 0L192 306.8V128c0-17.69 14.33-32 32-32s32 14.31 32 32v178.8l49.38-49.38c12.5-12.5 32.75-12.5 45.25 0S363.1 290.1 350.6 302.6z"/><path class="fa-secondary" d="M384 32H64C28.66 32 0 60.66 0 96v320c0 35.34 28.66 64 64 64h320c35.34 0 64-28.66 64-64V96C448 60.66 419.3 32 384 32zM350.6 302.6l-103.1 103.1C238.7 414.6 228.9 416 224 416c-4.881 0-14.65-1.391-22.65-9.398L97.38 302.6c-12.5-12.5-12.5-32.75 0-45.25s32.75-12.5 45.25 0L192 306.8V128c0-17.69 14.33-32 32-32s32 14.31 32 32v178.8l49.38-49.38c12.5-12.5 32.75-12.5 45.25 0S363.1 290.1 350.6 302.6z"/></svg>
